svg/u1f97b.svg

<svg viewBox="0 0 128 128" xmlns="http://www.w3.org/2000/svg">
  <g>
    <path d="M89.49,22.4l-10.7,10.22l10.01,55.45c8.47-2.99,14.26-8.59,18.91-11.48 c2.7-1.68,5.63-2.59,5.63-2.59L89.49,22.4z" fill="#00796B"/>
    <path d="M93.09,30.13l6.98,15.16c0,0-7.43-6.74-8.31,1.45c-0.87,8.19-2.69,16.24-2.69,16.24l-9.13-34.54 L93.09,30.13z" fill="#00695C"/>
    <path d="M112.43,72.2c-3.91,0.9-7.01,3.21-10.42,5.61c-3.8,2.71-7.91,5.62-13.6,7.35l0.75,3.88 c7.31-1.98,12.36-5.55,16.46-8.42c3.11-2.2,5.81-4.11,8.52-4.71L112.43,72.2z" fill="#E2A610"/>
    <path d="M104.52,24.1c-2.5-3.21-7.54-10.05-12.76-13.29C85.45,7,78.67,4.66,78.67,4.66 s-5.04,8.53-12.52,9.92s-13.33-3.11-14.73-5.01c-1.5-2.2-2.3-4.61-3.81-4.11c-2.5,0.9-6.41,1.96-10.62,5.01 C33.46,13.03,26.76,20.9,24.26,24.1c-0.6,0.7-0.5,1.8,0.2,2.4l8.52,8.52c0.7,0.7,1.9,0.7,2.61,0l6.11-5.81l1,4.31 c1.2,5.01,1.6,7.21,1.5,9.42c0,0.09,40.38,0.09,40.38,0c-0.1-2.2,0.3-4.41,1.5-9.42l1-4.31l6.11,5.81c0.7,0.7,1.9,0.7,2.61,0 l8.52-8.52C105.02,25.91,105.12,24.8,104.52,24.1z" fill="#C62828"/>
    <path d="M34.28,91.74l-3.11,25.35c6.41,4.11,14.03,1.2,18.34,2.2c4.31,1,8.52,4.11,16.03,4.11 s9.62-3.11,13.93-4.11c4.31-1,10.22,2,19.34-3.41L84.78,39.63c0.05-0.1-8.92,17.93-21.89,31.33C50.6,83.65,34.28,91.74,34.28,91.74 z" fill="#26A69A"/>
    <path d="M44.35,92.88c0.82-0.49,4.53-2.46,4.19,2.87c-0.54,8.3-2.29,23.88-2.29,23.88s1.96-0.02,3.25,0.43 c1.45,0.51,5.3,1.86,5.3,1.86s2.11-18.97,3.41-28.42c1.85-13.41,7.02-17.22,8.57-18.16c1.54-0.93,4.08-1.12,5.52,2.14 c3.08,6.99,5.61,25.83,6.08,29.86c0.47,4.03,1.48,3.48,1.52-0.27c0.12-12.15,0.38-40.84,1.37-48.51 c1.85-14.34,4.15-15.42,4.15-15.42l-0.65-3.51c0.02-0.04,0.86-0.05-1.3-0.05c-3.48,7.33-10.97,21.25-22.31,32.61 C43.96,89.43,34.28,91.74,34.28,91.74l-0.8,6.61C33.48,98.35,36.27,97.75,44.35,92.88z" fill="#00796B"/>
    <path d="M65.54,124c-7.65-0.03-11.13-2.59-16.73-4.21c-5.49-0.55-12.26,1.61-17.84-2.2l0.75-5.03 c5.5,3.88,12.47,1.72,18.28,2.72c5.41,1.43,8.85,4.11,15.43,4.11c6.51,0.05,7.67-3.27,13.33-4.01c6.94-0.9,11.18,1.62,19.2-4.05 l1.06,5.25c-8.82,5.25-12.55,2.67-19.06,3.4C74.89,121.51,73.3,123.97,65.54,124z" fill="#FFCA28"/>
    <path d="M60.34,13.76c-6.51-0.9-8.92-5.91-9.92-8.02c-0.3-0.6-1-0.9-1.7-0.7l-3.28,1.23 c0,0,1.98,5.39,5.08,8.09c6.11,5.41,15.13,5.31,20.54,2l0.8-6.41C67.56,13.16,65.95,14.46,60.34,13.76z" fill="#FF7555"/>
    <path d="M78,4.38C65.22,17.59,40.93,36.59,40.93,36.59l1.93,8.65l-2.55,5.35l0.06,11.5l-2.75,5.98 l-3.34,23.67c0,0,24.95-11.36,38.55-33.1C87.64,35.43,89.18,24.03,91.5,10.35C91.5,10.35,83.59,5.64,78,4.38z" fill="#80DDD2"/>
    <path d="M40.93,36.59c0,0,1.45,8.03,1.54,8.76s-2.62,4.31-2.62,5.7c0,1.39-0.03,9.61-0.03,10.59 c0,0.98-2.54,5.22-2.66,6.18c-0.12,0.95-2.89,23.93-2.89,23.93s3.23-0.48,7.05-2.7c0.92-16.5-0.83-21.92,2.49-24.72 c3.32-2.79,9.84-7.26,18.09-21.38c0.35-0.59,0.76-1.81-0.06-2c-0.68-0.16-1.47,1.31-1.62,1.52c-2.4,3.45-6.21,8.27-13.65,12.06 c-3.2,1.63-3.05-6.15-1.57-6.96c2.69-1.59,10.06-7.6,15.27-14.29c0.18-0.24,1.12-1.32,0.7-1.72c-0.38-0.35-1.42,0.67-1.42,0.68 c0,0-7.07,6.54-10.15,7.8c-3.64,1.57-3.25-1.97-3.5-7.4C42.09,35.72,40.93,36.59,40.93,36.59z" fill="#29B3A6"/>
    <polygon points="46.5,80.29 43.59,76.69 46.5,73.09 49.42,76.69 " fill="#FFE36C"/>
    <polygon points="38.35,84.97 35.99,82.04 38.35,79.12 40.72,82.04 " fill="#FFCA28"/>
    <polygon points="62.04,65.98 58.53,61.77 62.04,57.56 65.44,61.87 " fill="#FFE36C"/>
    <polygon points="76.3,45.8 72.79,41.59 76.3,37.39 79.7,41.69 " fill="#FFE36C"/>
    <polygon points="81.25,35.97 78.21,32.32 81.25,28.68 84.2,32.41 " fill="#FFE36C"/>
    <polygon points="54.57,73.91 51.26,69.94 54.47,65.98 57.78,69.94 " fill="#FFE36C"/>
    <polygon points="41.86,108.37 38.35,104.16 41.86,99.95 45.27,104.16 " fill="#FFCA28"/>
    <polygon points="87.12,108.37 83.61,104.16 87.12,99.95 90.63,104.16 " fill="#FFCA28"/>
    <polygon points="98.76,72 95.35,67.79 98.76,63.58 102.26,67.79 " fill="#E2A610"/>
    <polygon points="65.49,114.48 61.99,110.27 65.49,106.06 69,110.27 " fill="#FFE36C"/>
    <path d="M37.89,32.92L26.44,21.26c-0.77,0.87-1.78,2.34-2.19,2.84c-0.6,0.7-0.5,1.8,0.2,2.4l8.52,8.52 c0.7,0.7,1.9,0.7,2.61,0C35.48,35.12,37.89,32.92,37.89,32.92z" fill="#FF7555"/>
    <path d="M90.89,32.84l11.42-11.52c0.68,0.77,1.87,2.28,2.2,2.81c0.63,0.79,0.5,1.8-0.2,2.4l-8.52,8.52 c-0.7,0.7-1.9,0.7-2.61,0C93.3,35.14,90.89,32.84,90.89,32.84z" fill="#FF7555"/>
    <path d="M53.61,16.56c-2.15-1.05-3.99-2.67-5.32-4.66c-0.27-0.41-0.12-0.96,0.31-1.2l2.01-1.12 c0.36-0.2,0.83-0.12,1.08,0.21c1.04,1.33,1.99,2.27,3.5,3.16c0.37,0.21,0.51,0.67,0.35,1.06l-0.8,2.1 C54.57,16.56,54.04,16.78,53.61,16.56z" fill="#FFA996"/>
    <path d="M30.04,30.79l-2.75-2.81c-0.34-0.34-0.36-0.88-0.06-1.26l1.4-1.73c0.36-0.44,1.02-0.47,1.41-0.07 l3.16,3.22c0.4,0.41,0.35,1.09-0.12,1.43l-1.81,1.32C30.89,31.17,30.37,31.13,30.04,30.79z" fill="#FFA996"/>
    <polygon points="84.62,27.32 81.99,24.1 84.55,21.02 87.18,24.17 " fill="#FFE36C"/>
    <polygon points="87.33,18.49 85.07,15.71 87.26,13.06 89.53,15.77 " fill="#FFE36C"/>
    <polygon points="69.79,55.98 66.14,51.6 69.69,47.22 73.34,51.6 " fill="#FFE36C"/>
    <path d="M62.05,120.1l-0.2,2.31c-0.03,0.47,0.29,0.89,0.76,0.96c1.42,0.21,4.41,0.34,7.36-0.21 c0.46-0.09,0.77-0.54,0.7-1.01l-0.4-2.42c-0.07-0.5-0.54-0.88-1.03-0.77c-2.98,0.65-5.05,0.43-6.21,0.31 C62.52,119.21,62.08,119.59,62.05,120.1z" fill="#FFF59D"/>
    <path d="M99.7,29.76l2.75-2.81c0.34-0.34,0.36-0.88,0.06-1.26l-1.4-1.73c-0.36-0.44-1.02-0.47-1.41-0.07 l-3.16,3.22c-0.4,0.41-0.35,1.09,0.12,1.43l1.81,1.32C98.85,30.14,99.37,30.1,99.7,29.76z" fill="#FFA996"/>
    <path d="M79.35,4.71L77.17,4C63.04,18.01,42.13,33.74,42.13,33.74c-1.23,1.03-1.36,2.21-1.07,4.01 C57.32,27.86,79.35,4.71,79.35,4.71z" fill="#FFE36C"/>
    <path d="M91.11,10.29c0,0-0.17,19-19.49,47.48c-13.81,20.35-31.8,29.53-37.18,32 c-0.14,1.29-0.3,2.68-0.41,3.72c0,0,23.74-8.93,40.14-34.14c18.14-27.88,18.96-47.86,18.96-47.86 C92.05,10.73,91.66,10.5,91.11,10.29z" fill="#FFE36C"/>
    <path d="M86.54,7.65L85.1,7.01c-11.72,36.54-37.01,58.3-48.68,66.96c-0.03,0.13-0.05,0.25-0.08,0.38 c-0.17,0.97-0.36,2.24-0.55,3.65C46.3,70.96,73.53,49.34,86.54,7.65z" fill="#FFE36C"/>
    <path d="M50.91,26.89c-5.2,4.15-9.34,7.06-9.34,7.06c-1.23,1.03-0.8,2-0.51,3.8 c3.23-1.97,6.7-4.46,10.17-7.19C51.14,29.33,51.02,28.01,50.91,26.89z" fill="#FFCA28"/>
    <path d="M41.47,86.08c-2.59,1.48-5.7,3.09-7.02,3.7c-0.14,1.29-0.3,2.68-0.41,3.72c0,0,3.4-1.42,7.43-3.62 V86.08z" fill="#FFCA28"/>
    <path d="M36.42,73.97c-0.03,0.13-0.05,0.25-0.08,0.38c-0.17,0.97-0.36,2.24-0.55,3.65 c1.24-0.83,4.2-3.01,5.85-4.25l0.1-3.95C40.31,70.96,37.6,73.09,36.42,73.97z" fill="#FFCA28"/>
    <path d="M71.17,9.7c0.74,0.18,2.97,0.29,2.97,0.29c1.67-1.69,5.21-5.28,5.21-5.28L77.17,4 C76.25,4.92,72.15,8.78,71.17,9.7z" fill="#FFCA28"/>
    <path d="M81.99,15.5l1.67,0.48c0.6-1.42,2.52-7.18,2.88-8.32L85.1,7.01C84.75,8.1,81.99,15.5,81.99,15.5z" fill="#FFCA28"/>
    <path d="M89.53,19.89l2.03,1.05c1.32-4.61,1.58-9.45,1.58-9.45s-1.32-1.05-2.03-1.37 C91.11,10.12,90.89,14.56,89.53,19.89z" fill="#FFCA28"/>
    <path d="M55.37,117.15c-4.18-2.29-7.51-2.12-8.62-2.15c-0.3,2.77-0.5,4.7-0.5,4.7 c3.13,0.08,4.02,0.85,8.55,2.22C54.8,121.91,55.03,120.03,55.37,117.15z" fill="#E2A610"/>
    <path d="M84.38,115.18c-1.54-0.02-3.83-0.03-5.61,0.2c-0.07,0.01-0.74,0.12-0.81,0.13l0.32,5.06 c0.31-0.11,1.78-0.87,7-0.65L84.38,115.18z" fill="#E2A610"/>
  </g>
</svg>

<svg viewBox="0 0 128 128" xmlns="http://www.w3.org/2000/svg">
  <defs/>
  <path d="M89.49,22.4 L78.79,32.62 L88.8,88.07 C97.27,85.08 103.06,79.48 107.71,76.59 C110.41,74.91 113.34,74 113.34,74 L89.49,22.4 Z" fill="#00796B"/>
  <path d="M93.09,30.13 L100.07,45.29 C100.07,45.29 92.64,38.55 91.76,46.74 C90.89,54.93 89.07,62.98 89.07,62.98 L79.94,28.44 L93.09,30.13 Z" fill="#00695C"/>
  <path d="M112.43,72.2 C108.52,73.1 105.42,75.41 102.01,77.81 C98.21,80.52 94.1,83.43 88.41,85.16 L89.16,89.04 C96.47,87.06 101.52,83.49 105.62,80.62 C108.73,78.42 111.43,76.51 114.14,75.91 L112.43,72.2 Z" fill="#E2A610"/>
  <path d="M104.52,24.1 C102.02,20.89 96.98,14.05 91.76,10.81 C85.45,7 78.67,4.66 78.67,4.66 C78.67,4.66 73.63,13.19 66.15,14.58 C58.67,15.97 52.82,11.47 51.42,9.57 C49.92,7.37 49.12,4.96 47.61,5.46 C45.11,6.36 41.2,7.42 36.99,10.47 C33.46,13.03 26.76,20.9 24.26,24.1 C23.66,24.8 23.76,25.9 24.46,26.5 L32.98,35.02 C33.68,35.72 34.88,35.72 35.59,35.02 L41.7,29.21 L42.7,33.52 C43.9,38.53 44.3,40.73 44.2,42.94 C44.2,43.03 84.58,43.03 84.58,42.94 C84.48,40.74 84.88,38.53 86.08,33.52 L87.08,29.21 L93.19,35.02 C93.89,35.72 95.09,35.72 95.8,35.02 L104.32,26.5 C105.02,25.91 105.12,24.8 104.52,24.1 Z" fill="#C62828"/>
  <path d="M34.28,91.74 L31.17,117.09 C37.58,121.2 45.2,118.29 49.51,119.29 C53.82,120.29 58.03,123.4 65.54,123.4 C73.05,123.4 75.16,120.29 79.47,119.29 C83.78,118.29 89.69,121.29 98.81,115.88 L84.78,39.63 C84.83,39.53 75.86,57.56 62.89,70.96 C50.6,83.65 34.28,91.74 34.28,91.74 Z" fill="#26A69A"/>
  <path d="M44.35,92.88 C45.17,92.39 48.88,90.42 48.54,95.75 C48,104.05 46.25,119.63 46.25,119.63 C46.25,119.63 48.21,119.61 49.5,120.06 C50.95,120.57 54.8,121.92 54.8,121.92 C54.8,121.92 56.91,102.95 58.21,93.5 C60.06,80.09 65.23,76.28 66.78,75.34 C68.32,74.41 70.86,74.22 72.3,77.48 C75.38,84.47 77.91,103.31 78.38,107.34 C78.85,111.37 79.86,110.82 79.9,107.07 C80.02,94.92 80.28,66.23 81.27,58.56 C83.12,44.22 85.42,43.14 85.42,43.14 L84.77,39.63 C84.79,39.59 85.63,39.58 83.47,39.58 C79.99,46.91 72.5,60.83 61.16,72.19 C43.96,89.43 34.28,91.74 34.28,91.74 L33.48,98.35 C33.48,98.35 36.27,97.75 44.35,92.88 Z" fill="#00796B"/>
  <path d="M65.54,124 C57.89,123.97 54.41,121.41 48.81,119.79 C43.32,119.24 36.55,121.4 30.97,117.59 L31.72,112.56 C37.22,116.44 44.19,114.28 50,115.28 C55.41,116.71 58.85,119.39 65.43,119.39 C71.94,119.44 73.1,116.12 78.76,115.38 C85.7,114.48 89.94,117 97.96,111.33 L99.02,116.58 C90.2,121.83 86.47,119.25 79.96,119.98 C74.89,121.51 73.3,123.97 65.54,124 Z" fill="#FFCA28"/>
  <path d="M60.34,13.76 C53.83,12.86 51.42,7.85 50.42,5.74 C50.12,5.14 49.42,4.84 48.72,5.04 L45.44,6.27 C45.44,6.27 47.42,11.66 50.52,14.36 C56.63,19.77 65.65,19.67 71.06,16.36 L71.86,9.95 C67.56,13.16 65.95,14.46 60.34,13.76 Z" fill="#FF7555"/>
  <path d="M78,4.38 C65.22,17.59 40.93,36.59 40.93,36.59 L42.86,45.24 L40.31,50.59 L40.37,62.09 L37.62,68.07 L34.28,91.74 C34.28,91.74 59.23,80.38 72.83,58.64 C87.64,35.43 89.18,24.03 91.5,10.35 C91.5,10.35 83.59,5.64 78,4.38 Z" fill="#80DDD2"/>
  <path d="M40.93,36.59 C40.93,36.59 42.38,44.62 42.47,45.35 C42.56,46.08 39.85,49.66 39.85,51.05 C39.85,52.44 39.82,60.66 39.82,61.64 C39.82,62.62 37.28,66.86 37.16,67.82 C37.04,68.77 34.27,91.75 34.27,91.75 C34.27,91.75 37.5,91.27 41.32,89.05 C42.24,72.55 40.49,67.13 43.81,64.33 C47.13,61.54 53.65,57.07 61.9,42.95 C62.25,42.36 62.66,41.14 61.84,40.95 C61.16,40.79 60.37,42.26 60.22,42.47 C57.82,45.92 54.01,50.74 46.57,54.53 C43.37,56.16 43.52,48.38 45,47.57 C47.69,45.98 55.06,39.97 60.27,33.28 C60.45,33.04 61.39,31.96 60.97,31.56 C60.59,31.21 59.55,32.23 59.55,32.24 C59.55,32.24 52.48,38.78 49.4,40.04 C45.76,41.61 46.15,38.07 45.9,32.64 C42.09,35.72 40.93,36.59 40.93,36.59 Z" fill="#29B3A6"/>
  <path d="M46.5,80.29 L43.59,76.69 L46.5,73.09 L49.42,76.69 Z" fill="#FFE36C"/>
  <path d="M38.35,84.97 L35.99,82.04 L38.35,79.12 L40.72,82.04 Z" fill="#FFCA28"/>
  <path d="M62.04,65.98 L58.53,61.77 L62.04,57.56 L65.44,61.87 Z" fill="#FFE36C"/>
  <path d="M76.3,45.8 L72.79,41.59 L76.3,37.39 L79.7,41.69 Z" fill="#FFE36C"/>
  <path d="M81.25,35.97 L78.21,32.32 L81.25,28.68 L84.2,32.41 Z" fill="#FFE36C"/>
  <path d="M54.57,73.91 L51.26,69.94 L54.47,65.98 L57.78,69.94 Z" fill="#FFE36C"/>
  <path d="M41.86,108.37 L38.35,104.16 L41.86,99.95 L45.27,104.16 Z" fill="#FFCA28"/>
  <path d="M87.12,108.37 L83.61,104.16 L87.12,99.95 L90.63,104.16 Z" fill="#FFCA28"/>
  <path d="M98.76,72 L95.35,67.79 L98.76,63.58 L102.26,67.79 Z" fill="#E2A610"/>
  <path d="M65.49,114.48 L61.99,110.27 L65.49,106.06 L69,110.27 Z" fill="#FFE36C"/>
  <path d="M37.89,32.92 L26.44,21.26 C25.67,22.13 24.66,23.6 24.25,24.1 C23.65,24.8 23.75,25.9 24.45,26.5 L32.97,35.02 C33.67,35.72 34.87,35.72 35.58,35.02 C35.48,35.12 37.89,32.92 37.89,32.92 Z" fill="#FF7555"/>
  <path d="M90.89,32.84 L102.31,21.32 C102.99,22.09 104.18,23.6 104.51,24.13 C105.14,24.92 105.01,25.93 104.31,26.53 L95.79,35.05 C95.09,35.75 93.89,35.75 93.18,35.05 C93.3,35.14 90.89,32.84 90.89,32.84 Z" fill="#FF7555"/>
  <path d="M53.61,16.56 C51.46,15.51 49.62,13.89 48.29,11.9 C48.02,11.49 48.17,10.94 48.6,10.7 L50.61,9.58 C50.97,9.38 51.44,9.46 51.69,9.79 C52.73,11.12 53.68,12.06 55.19,12.95 C55.56,13.16 55.7,13.62 55.54,14.01 L54.74,16.11 C54.57,16.56 54.04,16.78 53.61,16.56 Z" fill="#FFA996"/>
  <path d="M30.04,30.79 L27.29,27.98 C26.95,27.64 26.93,27.1 27.23,26.72 L28.63,24.99 C28.99,24.55 29.65,24.52 30.04,24.92 L33.2,28.14 C33.6,28.55 33.55,29.23 33.08,29.57 L31.27,30.89 C30.89,31.17 30.37,31.13 30.04,30.79 Z" fill="#FFA996"/>
  <path d="M84.62,27.32 L81.99,24.1 L84.55,21.02 L87.18,24.17 Z" fill="#FFE36C"/>
  <path d="M87.33,18.49 L85.07,15.71 L87.26,13.06 L89.53,15.77 Z" fill="#FFE36C"/>
  <path d="M69.79,55.98 L66.14,51.6 L69.69,47.22 L73.34,51.6 Z" fill="#FFE36C"/>
  <path d="M62.05,120.1 L61.85,122.41 C61.82,122.88 62.14,123.3 62.61,123.37 C64.03,123.58 67.02,123.71 69.97,123.16 C70.43,123.07 70.74,122.62 70.67,122.15 L70.27,119.73 C70.2,119.23 69.73,118.85 69.24,118.96 C66.26,119.61 64.19,119.39 63.03,119.27 C62.52,119.21 62.08,119.59 62.05,120.1 Z" fill="#FFF59D"/>
  <path d="M99.7,29.76 L102.45,26.95 C102.79,26.61 102.81,26.07 102.51,25.69 L101.11,23.96 C100.75,23.52 100.09,23.49 99.7,23.89 L96.54,27.11 C96.14,27.52 96.19,28.2 96.66,28.54 L98.47,29.86 C98.85,30.14 99.37,30.1 99.7,29.76 Z" fill="#FFA996"/>
  <path d="M79.35,4.71 L77.17,4 C63.04,18.01 42.13,33.74 42.13,33.74 C40.9,34.77 40.77,35.95 41.06,37.75 C57.32,27.86 79.35,4.71 79.35,4.71 Z" fill="#FFE36C"/>
  <path d="M91.11,10.29 C91.11,10.29 90.94,29.29 71.62,57.77 C57.81,78.12 39.82,87.3 34.44,89.77 C34.3,91.06 34.14,92.45 34.03,93.49 C34.03,93.49 57.77,84.56 74.17,59.35 C92.31,31.47 93.13,11.49 93.13,11.49 C92.05,10.73 91.66,10.5 91.11,10.29 Z" fill="#FFE36C"/>
  <path d="M86.54,7.65 L85.1,7.01 C73.38,43.55 48.09,65.31 36.42,73.97 C36.39,74.1 36.37,74.22 36.34,74.35 C36.17,75.32 35.98,76.59 35.79,78 C46.3,70.96 73.53,49.34 86.54,7.65 Z" fill="#FFE36C"/>
  <path d="M50.91,26.89 C45.71,31.04 41.57,33.95 41.57,33.95 C40.34,34.98 40.77,35.95 41.06,37.75 C44.29,35.78 47.76,33.29 51.23,30.56 C51.14,29.33 51.02,28.01 50.91,26.89 Z" fill="#FFCA28"/>
  <path d="M41.47,86.08 C38.88,87.56 35.77,89.17 34.45,89.78 C34.31,91.07 34.15,92.46 34.04,93.5 C34.04,93.5 37.44,92.08 41.47,89.88 L41.47,86.08 Z" fill="#FFCA28"/>
  <path d="M36.42,73.97 C36.39,74.1 36.37,74.22 36.34,74.35 C36.17,75.32 35.98,76.59 35.79,78 C37.03,77.17 39.99,74.99 41.64,73.75 L41.74,69.8 C40.31,70.96 37.6,73.09 36.42,73.97 Z" fill="#FFCA28"/>
  <path d="M71.17,9.7 C71.91,9.88 74.14,9.99 74.14,9.99 C75.81,8.3 79.35,4.71 79.35,4.71 L77.17,4 C76.25,4.92 72.15,8.78 71.17,9.7 Z" fill="#FFCA28"/>
  <path d="M81.99,15.5 L83.66,15.98 C84.26,14.56 86.18,8.8 86.54,7.66 L85.1,7.01 C84.75,8.1 81.99,15.5 81.99,15.5 Z" fill="#FFCA28"/>
  <path d="M89.53,19.89 L91.56,20.94 C92.88,16.33 93.14,11.49 93.14,11.49 C93.14,11.49 91.82,10.44 91.11,10.12 C91.11,10.12 90.89,14.56 89.53,19.89 Z" fill="#FFCA28"/>
  <path d="M55.37,117.15 C51.19,114.86 47.86,115.03 46.75,115 C46.45,117.77 46.25,119.7 46.25,119.7 C49.38,119.78 50.27,120.55 54.8,121.92 C54.8,121.91 55.03,120.03 55.37,117.15 Z" fill="#E2A610"/>
  <path d="M84.38,115.18 C82.84,115.16 80.55,115.15 78.77,115.38 C78.7,115.39 78.03,115.5 77.96,115.51 L78.28,120.57 C78.59,120.46 80.06,119.7 85.28,119.92 L84.38,115.18 Z" fill="#E2A610"/>
</svg>
